img/index/timer.svg

<svg width="238" height="276" viewBox="0 0 238 276" fill="none" xmlns="http://www.w3.org/2000/svg">
<path d="M211.314 81.6277L215.587 77.3408C221.752 71.1663 222.878 62.1925 218.086 57.4017C213.294 52.6109 204.334 53.7227 198.176 59.8971L193.871 64.208C176.746 50.2779 156.074 41.4187 134.187 38.6304V30.9603H140.305C149.019 30.9603 156.151 23.994 156.151 15.4842C156.151 6.97427 149.019 0 140.305 0H97.7208C89.0075 0 81.8755 6.96627 81.8755 15.4842C81.8755 24.002 89.0075 30.9603 97.7208 30.9603H103.839V38.6304C77.6967 41.9933 53.4093 53.9522 34.7872 72.6308C16.1652 91.3093 4.26218 115.651 0.945904 141.835C-2.37038 168.02 3.08771 194.566 16.4638 217.309C29.8399 240.052 50.377 257.704 74.8528 267.496C99.3286 277.288 126.358 278.665 151.7 271.412C177.042 264.16 199.263 248.687 214.875 227.421C230.488 206.156 238.609 180.302 237.964 153.915C237.32 127.529 227.946 102.103 211.314 81.6277ZM119.013 244.947C101.61 244.947 84.5984 239.779 70.1286 230.097C55.6589 220.414 44.3813 206.652 37.7219 190.551C31.0625 174.45 29.3205 156.733 32.7162 139.64C36.1119 122.547 44.4927 106.847 56.7989 94.5241C69.105 82.2015 84.7837 73.81 101.852 70.411C118.921 67.012 136.613 68.7581 152.69 75.4285C168.768 82.0989 182.509 93.3939 192.176 107.885C201.844 122.377 207.003 139.413 207.001 156.841C206.999 180.209 197.728 202.619 181.227 219.142C164.726 235.665 142.348 244.947 119.013 244.947Z" fill="#DEDEDE"/>
<circle cx="119" cy="157" r="93" stroke="#D22856" stroke-width="16"/>
<path d="M115.906 191H68V180.922L85.2031 163.531C90.2969 158.312 93.625 154.703 95.1875 152.703C96.75 150.672 97.875 148.797 98.5625 147.078C99.25 145.359 99.5938 143.578 99.5938 141.734C99.5938 138.984 98.8281 136.938 97.2969 135.594C95.7969 134.25 93.7812 133.578 91.25 133.578C88.5938 133.578 86.0156 134.188 83.5156 135.406C81.0156 136.625 78.4062 138.359 75.6875 140.609L67.8125 131.281C71.1875 128.406 73.9844 126.375 76.2031 125.188C78.4219 124 80.8438 123.094 83.4688 122.469C86.0938 121.812 89.0312 121.484 92.2812 121.484C96.5625 121.484 100.344 122.266 103.625 123.828C106.906 125.391 109.453 127.578 111.266 130.391C113.078 133.203 113.984 136.422 113.984 140.047C113.984 143.203 113.422 146.172 112.297 148.953C111.203 151.703 109.484 154.531 107.141 157.438C104.828 160.344 100.734 164.484 94.8594 169.859L86.0469 178.156V178.812H115.906V191ZM172.297 176.797H164.047V191H149.891V176.797H120.641V166.719L150.688 122.469H164.047V165.547H172.297V176.797ZM149.891 165.547V153.922C149.891 151.984 149.969 149.172 150.125 145.484C150.281 141.797 150.406 139.656 150.5 139.062H150.125C148.969 141.625 147.578 144.125 145.953 146.562L133.391 165.547H149.891Z" fill="#D22856"/>
</svg>

<svg width="238" height="276" fill="none" xmlns="http://www.w3.org/2000/svg"><path d="m211.31 81.63 4.28-4.29c6.16-6.17 7.29-15.15 2.5-19.94-4.8-4.79-13.76-3.68-19.91 2.5l-4.3 4.3a118.27 118.27 0 0 0-59.7-25.57v-7.67h6.13c8.7 0 15.84-6.97 15.84-15.48 0-8.5-7.13-15.48-15.84-15.48H97.72c-8.71 0-15.84 6.97-15.84 15.48 0 8.52 7.13 15.48 15.84 15.48h6.12v7.67a118.94 118.94 0 0 0-69.05 34 119.31 119.31 0 0 0-18.32 144.68 119.05 119.05 0 0 0 58.38 50.19 118.84 118.84 0 0 0 76.85 3.91 118.99 118.99 0 0 0 63.18-43.99 119.28 119.28 0 0 0-3.57-145.8Zm-92.3 163.32a87.9 87.9 0 0 1-48.88-14.85A88.23 88.23 0 0 1 56.8 94.53a87.95 87.95 0 0 1 95.89-19.1 88.01 88.01 0 0 1 39.49 32.45 88.2 88.2 0 0 1-10.95 111.26 87.92 87.92 0 0 1-62.22 25.8Z" fill="#DEDEDE"/><circle cx="119" cy="157" r="93" stroke="#D22856" stroke-width="16"/><path d="M115.9 191H68v-10.08l17.2-17.39c5.1-5.22 8.42-8.83 9.99-10.83a24.27 24.27 0 0 0 3.37-5.62c.69-1.72 1.03-3.5 1.03-5.35 0-2.75-.76-4.8-2.3-6.14-1.5-1.34-3.5-2.01-6.04-2.01-2.66 0-5.23.6-7.73 1.83a39.92 39.92 0 0 0-7.83 5.2l-7.88-9.33c3.38-2.87 6.17-4.9 8.4-6.1a30.07 30.07 0 0 1 7.26-2.71c2.62-.66 5.56-.99 8.81-.99 4.28 0 8.06.79 11.34 2.35a18.1 18.1 0 0 1 7.65 6.56 17.43 17.43 0 0 1 2.71 9.66c0 3.15-.56 6.12-1.68 8.9a33.4 33.4 0 0 1-5.16 8.49c-2.31 2.9-6.4 7.04-12.28 12.42l-8.81 8.3v.65h29.86V191Zm56.4-14.2h-8.25V191h-14.16v-14.2h-29.25v-10.08l30.05-44.25h13.36v43.08h8.25v11.25Zm-22.4-11.25v-11.63a222.2 222.2 0 0 1 .6-14.86h-.38a52.2 52.2 0 0 1-4.17 7.5l-12.56 18.99h16.5Z" fill="#D22856"/></svg>
